X:1
T: Jaque Latin
N:
C:
S:
A:
O:
R:
M:4/4
K:G
I:speed 212
%W: A
% voice 1 (1 lines, 32 notes)
K:G
M:4/4
L:1/16
G2 A2 B2 c2 d4 g4 |d4 B4 B4 g4 |d4 B4 B4 g4 |d8 B8 |G2 A2 B2 c2 d4 g4 |d4 B4 B4 g4 |=f4 A4 A4 B4 |c8 A8 |
%W:
% voice 1 (1 lines, 32 notes)
G2 A2 B2 c2 d4 g4 |d4 B4 B4 g4 |d4 B4 B4 g4 |d8 B8 |G2 A2 B2 c2 d4 g4 |d4 B4 B4 g4 |=f4 A4 A4 B4 |c8 A8 |
%W: B
% voice 1 (1 lines, 37 notes)
G2 A2 B2 c2 d4 B4 |e4 d2 c2 d4 B4 |G2 A2 B2 c2 d4 B4 |d8 B8 |G2 A2 B2 c2 d4 B4 |e4 d2 c2 d4 d2 e2 |=f4 A4 A4 B4 |c8 A8 |
%W:
% voice 1 (1 lines, 37 notes)
G2 A2 B2 c2 d4 B4 |e4 d2 c2 d4 B4 |G2 A2 B2 c2 d4 B4 |d8 B8 |G2 A2 B2 c2 d4 B4 |e4 d2 c2 d4 d2 e2 |=f4 A4 A4 B4 |c8 A8 |
%W: C
% voice 1 (1 lines, 39 notes)
g4 d4 B2 c2 d2 B2 |g4 d4 B2 c2 d2 B2 |g4 d4 B2 c2 d2 B2 |g8 d8 |g4 d4 B2 c2 d2 B2 |g4 d4 B2 c2 d2 B2 |a2 c2 A4 A4 B4 |c8 A8 |
%W:
% voice 1 (1 lines, 39 notes)
g4 d4 B2 c2 d2 B2 |g4 d4 B2 c2 d2 B2 |g4 d4 B2 c2 d2 B2 |g8 d8 |g4 d4 B2 c2 d2 B2 |g4 d4 B2 c2 d2 B2 |a2 c2 A4 A4 B4 |c8 A8 ||
%W:         end
% voice 1 (1 lines, 1 notes)
G16 |
